X:419
T:Marche des Cabrettaires
Z:Jack Campin, http://www.campin.me.uk/
F:Jack Campin's Nine-Note Tunebook
% last edit 25-10-2014
M:2/4
L:1/16
Q:1/4=66
K:D
CDE|F2F2 FGFE|D2D>E DCDE|F2D2  C2D2|   E>FGF    E2
 EF|G2G2 GAGF|E2E>F E2FG|A2A>B AGFE|[1 DdcB     A :|\
                                    [2 D4       D3|| 
  A|FAFA F3A |B>AGF GE2G|EGEG  E3G |   A>GFE [1 F3:|\
                                             [2 D |]

